public/images/tech-icons/html5-plain.svg

<svg xmlns="http://www.w3.org/2000/svg" viewBox="0 0 128 128"><path fill="#E44D26" d="M9.032 2l10.005 112.093 44.896 12.401 45.02-12.387 10.015-112.107h-109.936zm89.126 26.539l-.627 7.172-.276 3.289h-52.665000000000006l1.257 14h50.156000000000006l-.336 3.471-3.233 36.119-.238 2.27-28.196 7.749v.002l-.034.018-28.177-7.423-1.913-21.206h13.815000000000001l.979 10.919 15.287 4.081h.043v-.546l15.355-3.875 1.604-17.579h-47.698l-3.383-38.117-.329-3.883h68.939l-.33 3.539z"/></svg>

<?xml version="1.0" encoding="utf-8"?>
<!-- Generator: Adobe Illustrator 21.1.0, SVG Export Plug-In . SVG Version: 6.00 Build 0)  -->
<svg version="1.1" id="Layer_1" xmlns="http://www.w3.org/2000/svg" xmlns:xlink="http://www.w3.org/1999/xlink" x="0px" y="0px"
	 viewBox="0 0 128 128" style="enable-background:new 0 0 128 128;" xml:space="preserve">
<g>
	<path d="M9,2l10,112.1l44.9,12.4l45-12.4L119,2H9z M98.2,28.5l-0.6,7.2L97.3,39H44.6l1.3,14H96l-0.3,3.5l-3.2,36.1l-0.2,2.3
		L64,102.6l0,0l0,0l-28.2-7.4L33.9,74h13.8l1,10.9L64,89l0,0v-0.5l15.4-3.9L81,67H33.3l-3.4-38.1L29.5,25h68.9
		C98.5,25,98.2,28.5,98.2,28.5z"/>
</g>
</svg>
